frontend/public/background.svg

<svg height="4875" viewBox="0 0 1440 4875" width="1440" xmlns="http://www.w3.org/2000/svg"><g fill="none" fill-rule="evenodd"><path d="m1440 4875h-1440v-1077h1440z" fill="#ff8a65"/><path d="m1440 4796.177v-2025.177h-1440v1384.048z" fill="#ffca28"/><path d="m0 3339.578v-1564.578h1440v1143.498z" fill="#f57c00"/><path d="m1440 2643.857-1440-609.847v-1128.129h1440z" fill="#ffa000"/><path d="m1440 905.88-1440 467.896v-1373.776h1440z" fill="#ff8a65"/></g></svg>

<svg width="1440" height="4875" viewBox="0 0 1440 4875" xmlns="http://www.w3.org/2000/svg" style="background:#f5f7f8"><g fill="none" fill-rule="evenodd"><path fill="#FF8A65" d="M1440 4875H0V3798h1440z"/><path fill="#FFCA28" d="M1440 4796.177V2771H0v1384.048l1440 641.129z"/><path fill="#F57C00" d="M0 3339.578V1775h1440v1143.498z"/><path fill="#FFA000" d="M1440 2643.857L0 2034.01V905.881h1440z"/><path fill="#FF8A65" d="M1440 905.88L0 1373.776V0h1440v905.88z"/></g></svg>
